alpha-k-box.svg

<svg fill="currentColor" viewBox="0 0 24 24"><path d="M9 7v10h2v-3.33L13 17h2l-3-5 3-5h-2l-2 3.33V7zM5 3h14a2 2 0 0 1 2 2v14a2 2 0 0 1-2 2H5a2 2 0 0 1-2-2V5a2 2 0 0 1 2-2"/></svg>

<svg  viewBox="0 0 24 24" fill="currentColor"><path  d="M9,7V17H11V13.67L13,17H15L12,12L15,7H13L11,10.33V7H9M5,3H19A2,2 0 0,1 21,5V19A2,2 0 0,1 19,21H5A2,2 0 0,1 3,19V5A2,2 0 0,1 5,3Z"/></svg>
